X:3133
T:Cobblers hornpipe
R:Hornpipe
O:England
M:3/2
N:in PDM 1701 onwards
A:Lancashire
B:Winder
K:Em
G4 E2FG AGFE | F2D4 A2G2F2 |\
G3A B2AG FGAF | B2E4 G2F2E2 :|*
|:e4 efg2 f2e2 | f2d4 a2 g2f2 |\
g3a b2ag fgfe | B2e4 G2F2E2 :|**


